components/Company/logos/logo-imanage.svg

<svg height="140" viewBox="0 0 400 140" width="400" xmlns="http://www.w3.org/2000/svg"><g fill="none" transform="translate(25 28)"><path d="m59.3352018 1.6558296c-5.437584-.8654359-10.9946024-.61175174-16.3307175.74551569 26.5168161 6.69394619 54.3991031 26.34417041 58.6681617 45.42152471 1.575326-2.0887749 2.892776-4.3600587 3.923767-6.764574 6.325112-16.4091929-30.817265-37.04820631-46.2612112-39.4024664z" fill="#6778f2"/><path d="m12.0930493 31.853139c5.9562781-14.588565 16.8957399-25.8340807 30.9192825-29.45179371-11.8183856-2.98991031-23.3934977-3.39798206-32.4338565-.0470852-18.5358744 7.61210762-9.13452911 49.16479821 1.0672646 63.75336321 15.9618834 22.8284754 46.543722 21.9730942 69.9136771 11.1748879 17.366592-7.9887892 22.545964-18.6457399 20.121076-29.4753363-24.2567262 32.4495516-111.18385623 37.1345291-89.5874437-15.9540359z" fill="#92deff"/><path d="m43.0123318 2.40134529c-14.0235426 3.61771301-24.9630044 14.86322871-30.9192825 29.45179371-21.59641253 53.088565 65.3307175 48.411435 89.5874437 15.969731-4.269058-19.0852018-32.1591926-38.72757852-58.6681612-45.42152471z" fill="#3b69f2"/><path d="m64.6872197 27.5526906c-3.2038193-.0015075-6.2602528 1.3458299-8.4204036 3.7118834-3.1767966-3.4810835-8.1668716-4.6509509-12.5598253-2.9445109-4.3929536 1.7064401-7.2848296 5.9380464-7.2787493 10.6507889v14.0078476h6.0033728v-14.0078476c.0000001-2.9905104 2.4242878-5.414798 5.4147983-5.414798 2.9905104 0 5.4147981 2.4242876 5.4147982 5.414798v14.0078476h6.0033632v-14.0078476c0-2.9905105 2.4242877-5.4147982 5.4147982-5.4147982s5.4147982 2.4242877 5.4147982 5.4147982v14.0078476h6.0269058v-14.0078476c-.0086597-6.3086144-5.1252361-11.4181674-11.4338565-11.4181614z" fill="#fff"/><path d="m33.7443946 18.9988139c2.3783263-.0128681 4.3172346 1.9038764 4.3317255 4.2821941.0143292 2.3783178-1.9012109 4.3184161-4.2795192 4.334303-2.3783084.015887-4.3195958-1.8984479-4.3370259-4.276746-.0129823-2.38071 1.9041365-4.3224073 4.2848196-4.3397511z" fill="#fff"/><g fill="#333e48"><path d="m129.397982 31.923767h6.850897v27.497758h-6.850897z"/><path d="m184.934978 59.4215247h-7.227579v-23.6446189l-10.986547 23.6446189h-5.493274l-10.986547-23.6446189v23.6446189h-7.227578v-40.4226458h6.913677l14.086323 29.1771301 14.007847-29.1771301h6.913678z"/><path d="m219.056054 30.1423767v29.279148h-6.850897v-3.9237669c-1.820628 2.9506727-5.658072 4.7085202-9.048206 4.7085202-8.922646 0-15.02018-7.0627802-15.02018-15.3890134s6.097534-15.3890135 15.02018-15.3890135c3.390134 0 7.227578 1.7578476 9.048206 4.7085202v-3.9237668h6.850897zm-6.850897 14.6356502c0-5.0224215-3.390135-9.2993273-8.632287-9.2993273-5.147982 0-8.545964 4.2690582-8.545964 9.2993273s3.390134 9.2993381 8.545964 9.2993381c5.242152.0078368 8.632287-4.269069 8.632287-9.2914906z"/><path d="m223.152466 30.1423767h6.850897v4.0807175c1.820628-3.1390135 5.21861-4.8340807 9.550449-4.8340807 4.206278 0 7.164798 1.5067264 8.797085 3.9237668 1.443946 2.1973094 1.883408 4.6457399 1.883408 8.632287v17.4764574h-6.850897v-15.1378924c0-5.0224215-1.443946-8.8598655-6.348655-8.8598655-4.7713 0-7.06278 3.8295964-7.06278 8.8598655v15.1457399h-6.850897v-29.2869955z"/><path d="m284.496637 30.1423767v29.279148h-6.850897v-3.9237669c-1.820628 2.9506727-5.658072 4.7085202-9.048206 4.7085202-8.922646 0-15.02018-7.0627802-15.02018-15.3890134s6.097534-15.3890135 15.02018-15.3890135c3.390134 0 7.227578 1.7578476 9.048206 4.7085202v-3.9237668h6.850897zm-6.850897 14.6434977c0-5.0224215-3.390135-9.2993273-8.632287-9.2993273-5.147982 0-8.545964 4.2690583-8.545964 9.2993273 0 5.0302691 3.390134 9.2993274 8.545964 9.2993274 5.242152 0 8.632287-4.2769058 8.632287-9.2993274z"/><path d="m318.609865 60.8654709c0 9.8015695-5.909192 13.9450672-15.647982 13.9450672-9.738789 0-14.384529-5.9641255-14.76121-12.030269h6.913677c.376681 3.1390134 2.887892 5.9719731 7.847533 5.9719731 5.493274 0 8.797086-2.3542601 8.797086-7.8475337v-5.4383408c-1.820628 2.9506727-5.658072 4.7085202-9.048207 4.7085202-8.922645 0-15.020179-7.0627803-15.020179-15.3890135 0-8.3262331 6.097534-15.3890134 15.020179-15.3890134 3.390135 0 7.227579 1.7578475 9.048207 4.7085202v-3.9237669h6.850896zm-24.060538-16.087444c0 5.0224215 3.390135 9.2993274 8.545964 9.2993274 5.281391 0 8.632287-4.2690583 8.632287-9.2993274s-3.390134-9.2993273-8.632287-9.2993273c-5.155829.0078475-8.545964 4.2769058-8.545964 9.3071748z"/><path d="m328.725336 46.8576233c.062781 4.206278 2.134529 7.6042601 7.667041 7.6042601 3.923766 0 5.34417-1.7578475 6.223094-3.8295964h6.913677c-.941704 5.0224215-5.658072 9.5504484-13.128924 9.5504484-9.86435 0-14.63565-7.4159193-14.63565-15.3890134 0-8.7970852 5.21861-15.3890135 14.447309-15.3890135 7.60426 0 13.568386 5.720852 13.568386 13.1917041.022744 1.4295289-.082308 2.8582305-.313901 4.2690583h-20.741032zm.086323-5.0930493h14.321749c0-4.0807175-2.950673-6.6625561-7.06278-6.6625561-4.07287.0078476-7.258969 2.3307175-7.258969 6.6625561z"/><path d="m132.795964 18.9988137c2.383688-.0129013 4.326567 1.9089359 4.339623 4.292624.012925 2.3836881-1.908893 4.3265863-4.292581 4.3396657-2.383688.0129481-4.326605-1.9088505-4.339672-4.2925384-.00868-2.3819869 1.91069-4.3224098 4.29263-4.3397513z"/></g></g></svg>

<?xml version="1.0" encoding="UTF-8"?>
<svg width="400px" height="140px" viewBox="0 0 400 140" version="1.1" xmlns="http://www.w3.org/2000/svg" xmlns:xlink="http://www.w3.org/1999/xlink">
    <title>Artboard</title>
    <g id="Artboard" stroke="none" stroke-width="1" fill="none" fill-rule="evenodd">
        <g id="imanage" transform="translate(25.000000, 28.000000)" fill-rule="nonzero">
            <path d="M59.3352018,1.6558296 C53.8976178,0.790393695 48.3405994,1.04407786 43.0044843,2.40134529 C69.5213004,9.09529148 97.4035874,28.7455157 101.672646,47.82287 C103.247972,45.7340951 104.565422,43.4628113 105.596413,41.058296 C111.921525,24.6491031 74.779148,4.01008969 59.3352018,1.6558296 Z" id="Path" fill="#6778F2"></path>
            <path d="M12.0930493,31.853139 C18.0493274,17.264574 28.9887892,6.0190583 43.0123318,2.40134529 C31.1939462,-0.588565022 19.6188341,-0.996636771 10.5784753,2.35426009 C-7.9573991,9.96636771 1.44394619,51.5190583 11.6457399,66.1076233 C27.6076233,88.9360987 58.1894619,88.0807175 81.559417,77.2825112 C98.926009,69.293722 104.105381,58.6367713 101.680493,47.8071749 C77.4237668,80.2567265 -9.50336323,84.941704 12.0930493,31.853139 Z" id="Path" fill="#92DEFF"></path>
            <path d="M43.0123318,2.40134529 C28.9887892,6.0190583 18.0493274,17.264574 12.0930493,31.853139 C-9.50336323,84.941704 77.4237668,80.264574 101.680493,47.82287 C97.411435,28.7376682 69.5213004,9.09529148 43.0123318,2.40134529 Z" id="Path" fill="#3B69F2"></path>
            <path d="M64.6872197,27.5526906 C61.4834004,27.5511831 58.4269669,28.8985205 56.2668161,31.264574 C53.0900195,27.7834905 48.0999445,26.6136231 43.7069908,28.3200631 C39.3140372,30.0265032 36.4221612,34.2581095 36.4282415,38.970852 L36.4282415,52.9786996 L42.4316143,52.9786996 L42.4316143,38.970852 C42.4316144,35.9803416 44.8559021,33.556054 47.8464126,33.556054 C50.836923,33.556054 53.2612107,35.9803416 53.2612108,38.970852 L53.2612108,52.9786996 L59.264574,52.9786996 L59.264574,38.970852 C59.264574,35.9803415 61.6888617,33.5560538 64.6793722,33.5560538 C67.6698827,33.5560538 70.0941704,35.9803415 70.0941704,38.970852 L70.0941704,52.9786996 L76.1210762,52.9786996 L76.1210762,38.970852 C76.1124165,32.6622376 70.9958401,27.5526846 64.6872197,27.5526906 Z" id="Path" fill="#FFFFFF"></path>
            <path d="M33.7443946,18.9988139 C36.1227209,18.9859458 38.0616292,20.9026903 38.0761201,23.281008 C38.0904493,25.6593258 36.1749092,27.5994241 33.7966009,27.615311 C31.4182925,27.631198 29.4770051,25.7168631 29.459575,23.338565 C29.4465927,20.957855 31.3637115,19.0161577 33.7443946,18.9988139 Z" id="Path" fill="#FFFFFF"></path>
            <rect id="Rectangle" fill="#333E48" x="129.397982" y="31.9237668" width="6.85089686" height="27.4977578"></rect>
            <polygon id="Path" fill="#333E48" points="184.934978 59.4215247 177.707399 59.4215247 177.707399 35.7769058 166.720852 59.4215247 161.227578 59.4215247 150.241031 35.7769058 150.241031 59.4215247 143.013453 59.4215247 143.013453 18.9988789 149.92713 18.9988789 164.013453 48.176009 178.0213 18.9988789 184.934978 18.9988789"></polygon>
            <path d="M219.056054,30.1423767 L219.056054,59.4215247 L212.205157,59.4215247 L212.205157,55.4977578 C210.384529,58.4484305 206.547085,60.206278 203.156951,60.206278 C194.234305,60.206278 188.136771,53.1434978 188.136771,44.8172646 C188.136771,36.4910314 194.234305,29.4282511 203.156951,29.4282511 C206.547085,29.4282511 210.384529,31.1860987 212.205157,34.1367713 L212.205157,30.2130045 L219.056054,30.2130045 L219.056054,30.1423767 Z M212.205157,44.7780269 C212.205157,39.7556054 208.815022,35.4786996 203.57287,35.4786996 C198.424888,35.4786996 195.026906,39.7477578 195.026906,44.7780269 C195.026906,49.808296 198.41704,54.077365 203.57287,54.077365 C208.815022,54.0852018 212.205157,49.808296 212.205157,44.7858744 L212.205157,44.7780269 Z" id="Shape" fill="#333E48"></path>
            <path d="M223.152466,30.1423767 L230.003363,30.1423767 L230.003363,34.2230942 C231.823991,31.0840807 235.221973,29.3890135 239.553812,29.3890135 C243.76009,29.3890135 246.71861,30.8957399 248.350897,33.3127803 C249.794843,35.5100897 250.234305,37.9585202 250.234305,41.9450673 L250.234305,59.4215247 L243.383408,59.4215247 L243.383408,44.2836323 C243.383408,39.2612108 241.939462,35.4237668 237.034753,35.4237668 C232.263453,35.4237668 229.971973,39.2533632 229.971973,44.2836323 L229.971973,59.4293722 L223.121076,59.4293722 L223.121076,30.1423767 L223.152466,30.1423767 Z" id="Path" fill="#333E48"></path>
            <path d="M284.496637,30.1423767 L284.496637,59.4215247 L277.64574,59.4215247 L277.64574,55.4977578 C275.825112,58.4484305 271.987668,60.206278 268.597534,60.206278 C259.674888,60.206278 253.577354,53.1434978 253.577354,44.8172646 C253.577354,36.4910314 259.674888,29.4282511 268.597534,29.4282511 C271.987668,29.4282511 275.825112,31.1860987 277.64574,34.1367713 L277.64574,30.2130045 L284.496637,30.2130045 L284.496637,30.1423767 Z M277.64574,44.7858744 C277.64574,39.7634529 274.255605,35.4865471 269.013453,35.4865471 C263.865471,35.4865471 260.467489,39.7556054 260.467489,44.7858744 C260.467489,49.8161435 263.857623,54.0852018 269.013453,54.0852018 C274.255605,54.0852018 277.64574,49.808296 277.64574,44.7858744 Z" id="Shape" fill="#333E48"></path>
            <path d="M318.609865,60.8654709 C318.609865,70.6670404 312.700673,74.8105381 302.961883,74.8105381 C293.223094,74.8105381 288.577354,68.8464126 288.200673,62.7802691 L295.11435,62.7802691 C295.491031,65.9192825 298.002242,68.7522422 302.961883,68.7522422 C308.455157,68.7522422 311.758969,66.3979821 311.758969,60.9047085 L311.758969,55.4663677 C309.938341,58.4170404 306.100897,60.1748879 302.710762,60.1748879 C293.788117,60.1748879 287.690583,53.1121076 287.690583,44.7858744 C287.690583,36.4596413 293.788117,29.396861 302.710762,29.396861 C306.100897,29.396861 309.938341,31.1547085 311.758969,34.1053812 L311.758969,30.1816143 L318.609865,30.1816143 L318.609865,60.8654709 Z M294.549327,44.7780269 C294.549327,49.8004484 297.939462,54.0773543 303.095291,54.0773543 C308.376682,54.0773543 311.727578,49.808296 311.727578,44.7780269 C311.727578,39.7477578 308.337444,35.4786996 303.095291,35.4786996 C297.939462,35.4865471 294.549327,39.7556054 294.549327,44.7858744 L294.549327,44.7780269 Z" id="Shape" fill="#333E48"></path>
            <path d="M328.725336,46.8576233 C328.788117,51.0639013 330.859865,54.4618834 336.392377,54.4618834 C340.316143,54.4618834 341.736547,52.7040359 342.615471,50.632287 L349.529148,50.632287 C348.587444,55.6547085 343.871076,60.1827354 336.400224,60.1827354 C326.535874,60.1827354 321.764574,52.7668161 321.764574,44.793722 C321.764574,35.9966368 326.983184,29.4047085 336.211883,29.4047085 C343.816143,29.4047085 349.780269,35.1255605 349.780269,42.5964126 C349.803013,44.0259415 349.697961,45.4546431 349.466368,46.8654709 L328.725336,46.8654709 L328.725336,46.8576233 Z M328.811659,41.764574 L343.133408,41.764574 C343.133408,37.6838565 340.182735,35.1020179 336.070628,35.1020179 C331.997758,35.1098655 328.811659,37.4327354 328.811659,41.764574 Z" id="Shape" fill="#333E48"></path>
            <path d="M132.795964,18.9988137 C135.179652,18.9859124 137.122531,20.9077496 137.135587,23.2914377 C137.148512,25.6751258 135.226694,27.618024 132.843006,27.6311034 C130.459318,27.6440515 128.516401,25.7222529 128.503334,23.338565 C128.494654,20.9565781 130.414024,19.0161552 132.795964,18.9988137 L132.795964,18.9988137 Z" id="Path" fill="#333E48"></path>
        </g>
    </g>
</svg>
